static/images/mobile/copyright/wikipedia-wordmark-be.svg

<?xml version="1.0" encoding="UTF-8"?>
<svg width="122px" height="21px" viewBox="0 0 122 21" version="1.1" xmlns="http://www.w3.org/2000/svg" xmlns:xlink="http://www.w3.org/1999/xlink">
    <title>be-wordmark</title>
    <g id="Page-1" stroke="none" stroke-width="1" fill="none" fill-rule="evenodd">
        <path d="M6.9755,0 C11.9965,0 12.7805,2.383 12.7805,4.217 C12.7805,5.706 11.5675,7.112 10.2165,7.807 L10.2165,7.862 C12.5645,8.548 14.3735,10.053 14.3735,12.684 C14.3735,15.038 12.9425,17.781 7.5715,17.781 C5.1695,17.781 4.7915,17.725 3.6305,17.725 C2.2545,17.725 1.4445,17.752 0.1215,17.781 C-0.0405,17.616 -0.0405,17.04 0.1215,16.876 C2.0115,16.794 2.4705,16.657 2.4705,14.383 L2.4705,3.397 C2.4705,1.124 2.0115,0.987 0.1215,0.905 C-0.0405,0.741 -0.0405,0.165 0.1215,0.001 C1.4725,0.027 2.2535,0.056 3.6025,0.056 C4.7625,0.055 6.0325,0 6.9755,0 Z M4.7625,7.698 L6.7605,7.698 C9.0005,7.698 10.5945,6.875 10.5945,4.548 C10.5945,1.753 8.6225,0.932 7.1125,0.932 C4.7625,0.932 4.7625,1.206 4.7625,2.111 L4.7625,7.698 L4.7625,7.698 Z M4.7625,15.038 C4.7625,15.943 5.1145,16.875 7.0025,16.875 C11.1065,16.875 11.8615,15.205 11.8615,13.204 C11.8615,10.739 10.3225,8.629 6.6255,8.629 L4.7625,8.629 L4.7625,15.038 Z M21.9215,17.122 C22.0435,17.236 22.0435,17.647 21.9215,17.763 C20.9095,17.744 20.3215,17.725 19.3095,17.725 C18.2765,17.725 17.6695,17.745 16.6785,17.763 C16.5555,17.648 16.5555,17.237 16.6785,17.122 C18.0945,17.062 18.4405,16.966 18.4405,15.351 L18.4405,7.551 C18.4405,5.935 18.0965,5.838 16.6785,5.78 C16.5555,5.663 16.5555,5.254 16.6785,5.137 C17.6905,5.158 18.2785,5.177 19.2895,5.177 C20.3215,5.177 20.9305,5.156 21.9215,5.137 C22.0435,5.253 22.0435,5.662 21.9215,5.78 C20.5045,5.839 20.1605,5.934 20.1605,7.551 L20.1605,15.351 C20.1605,16.966 20.5045,17.065 21.9215,17.122 Z M24.1695,17.355 C24.1695,17.258 24.2315,17.2 24.3115,17.2 L24.8585,17.162 C25.7105,17.1 25.9525,16.889 25.9525,16.346 L25.9525,6.561 C25.9525,5.977 25.6475,5.802 24.8585,5.743 L24.3335,5.706 C24.2525,5.706 24.1715,5.646 24.1715,5.55 L24.1715,5.181 L24.2125,5.143 C25.2245,5.163 25.8325,5.181 26.8455,5.181 C27.8575,5.181 28.4455,5.161 29.4375,5.143 L29.4785,5.181 L29.4785,5.55 C29.4785,5.649 29.4165,5.706 29.3165,5.706 L28.7905,5.743 C27.9805,5.805 27.6765,6.016 27.6765,6.561 L27.6765,10.606 C28.4055,10.606 29.3175,10.586 29.8035,10.315 C30.9975,9.693 31.2825,8.447 31.4635,7.359 C31.6655,6.154 32.2335,5.063 33.8325,5.063 C34.9055,5.063 35.2705,5.627 35.2705,6.074 C35.2705,6.639 34.8055,6.853 34.3795,6.853 C34.1165,6.853 33.8335,6.756 33.6305,6.561 C33.4075,6.346 33.2455,6.248 32.9835,6.248 C32.3765,6.248 32.2355,6.892 32.1315,7.454 C31.9085,8.66 31.4835,10.332 29.9435,10.878 L29.9435,10.976 C31.3405,10.976 32.1315,11.812 32.6775,13.174 C33.7325,15.799 34.7615,17.123 35.4705,17.18 L35.7945,17.201 C35.8965,17.201 35.9565,17.26 35.9565,17.355 L35.9565,17.725 L35.9355,17.763 L34.3355,17.743 C32.7565,17.723 32.0265,16.147 31.1565,14.009 C30.3645,12.064 29.9815,11.422 27.6735,11.422 L27.6735,16.344 C27.6735,16.926 27.9785,17.099 28.7875,17.16 L29.3135,17.198 C29.3935,17.198 29.4755,17.258 29.4755,17.353 L29.4755,17.723 L29.4345,17.761 C28.4615,17.723 27.8745,17.723 26.8625,17.723 C25.8505,17.723 25.2025,17.723 24.2105,17.761 L24.1695,17.723 L24.1695,17.355 L24.1695,17.355 Z M43.4675,17.122 C43.5895,17.236 43.5895,17.647 43.4675,17.763 C42.4555,17.744 41.8675,17.725 40.8565,17.725 C39.8245,17.725 39.2155,17.745 38.2235,17.763 C38.1025,17.648 38.1025,17.237 38.2235,17.122 C39.6415,17.062 39.9855,16.966 39.9855,15.351 L39.9855,7.551 C39.9855,5.935 39.6415,5.838 38.2235,5.78 C38.1025,5.663 38.1025,5.254 38.2235,5.137 C39.2365,5.158 39.8245,5.177 40.8355,5.177 C41.8685,5.177 42.4755,5.156 43.4675,5.137 C43.5895,5.253 43.5895,5.662 43.4675,5.78 C42.0515,5.839 41.7055,5.934 41.7055,7.551 L41.7055,15.351 C41.7055,16.966 42.0495,17.065 43.4675,17.122 Z M59.1195,5.141 C59.2415,5.256 59.2415,5.665 59.1195,5.782 C57.7025,5.842 57.3575,5.937 57.3575,7.553 L57.3575,15.354 C57.3575,16.968 57.7015,17.066 59.1195,17.125 C59.2415,17.24 59.2415,17.65 59.1195,17.766 C58.1275,17.746 57.5195,17.728 56.4875,17.728 C55.4745,17.728 54.8865,17.749 53.8755,17.766 C53.7535,17.651 53.7535,17.241 53.8755,17.125 C55.2925,17.066 55.6375,16.969 55.6375,15.354 L55.6375,7.398 C55.6375,6.193 55.1925,5.96 54.7055,5.96 L50.7175,5.96 C50.2315,5.96 49.7855,6.191 49.7855,7.398 L49.7855,15.354 C49.7855,16.968 50.1295,17.066 51.5475,17.125 C51.6685,17.24 51.6685,17.65 51.5475,17.766 C50.5345,17.746 49.9475,17.728 48.9365,17.728 C47.9035,17.728 47.2955,17.749 46.3035,17.766 C46.1825,17.651 46.1825,17.241 46.3035,17.125 C47.7215,17.066 48.0655,16.969 48.0655,15.354 L48.0655,7.553 C48.0655,5.939 47.7215,5.841 46.3035,5.782 C46.1825,5.666 46.1825,5.257 46.3035,5.141 C47.3175,5.161 48.4495,5.179 48.9155,5.179 L56.5085,5.179 C57.0555,5.179 58.1085,5.159 59.1195,5.141 Z M69.2555,9.379 C69.3765,9.263 69.8025,9.263 69.9235,9.379 C69.9025,9.964 69.8825,10.39 69.8825,11.052 C69.8825,11.713 69.9035,12.083 69.9235,12.765 C69.8025,12.88 69.3765,12.88 69.2555,12.765 C69.1935,11.889 69.1345,11.441 67.4115,11.441 L65.5695,11.441 L65.5695,16.129 C65.5695,16.654 65.8525,16.965 66.2985,16.965 L69.0525,16.965 C70.5915,16.965 71.3005,15.818 71.7045,14.417 C71.9705,14.354 72.2025,14.396 72.4135,14.514 C72.2515,15.506 71.9475,16.79 71.6655,17.762 C71.6655,17.762 70.0445,17.724 69.0725,17.724 L64.7185,17.724 C64.7185,17.724 63.0775,17.745 62.0855,17.762 C61.9645,17.647 61.9645,17.237 62.0855,17.12 C63.5035,17.062 63.8475,16.965 63.8475,15.35 L63.8475,7.549 C63.8475,5.934 63.5035,5.837 62.0855,5.778 C61.9645,5.662 61.9645,5.253 62.0855,5.137 C63.0995,5.157 64.6975,5.175 64.6975,5.175 L69.8605,5.175 C70.3465,5.175 70.5085,5.155 70.8525,5.098 C70.9155,5.098 70.9335,5.118 70.9335,5.157 C70.9745,5.312 71.2785,7.179 71.3775,7.976 C71.1805,8.067 70.9615,8.109 70.7095,8.075 C70.2655,6.732 69.9395,5.955 68.4225,5.955 L66.2955,5.955 C65.8105,5.955 65.5665,6.343 65.5665,6.809 L65.5665,10.7 L67.4085,10.7 C69.1325,10.702 69.1945,10.449 69.2555,9.379 Z M77.0155,11.869 C77.4595,9.651 77.7035,7.648 77.7035,6.424 C77.7035,6.015 77.5195,5.813 76.9945,5.763 L76.3875,5.704 C76.2865,5.704 76.2255,5.664 76.2255,5.587 L76.2255,5.179 L76.2665,5.141 C76.2665,5.141 77.6845,5.179 78.2905,5.179 L83.5755,5.179 C84.1815,5.179 85.7825,5.141 85.7825,5.141 L85.8235,5.179 L85.8235,5.548 C85.8235,5.664 85.7425,5.698 85.6615,5.704 L85.0735,5.741 C84.4225,5.785 84.3245,6.033 84.3245,6.734 L84.3245,16.207 C84.3245,16.927 84.7805,17.141 85.1355,17.199 C85.5745,17.272 85.7315,17.337 85.7425,17.569 L85.8855,20.448 C85.3375,20.448 85.3375,20.468 85.3375,20.468 C85.0945,19.379 84.3655,17.726 82.7455,17.726 L76.8735,17.726 C75.1915,17.726 74.6665,19.457 74.4435,20.468 L73.8965,20.448 L74.0385,17.569 C74.0515,17.337 74.2645,17.228 74.4645,17.199 C74.8605,17.14 75.1845,17.093 75.4775,16.81 C76.0035,16.303 76.3665,14.903 77.0155,11.869 Z M79.3635,5.956 C78.8165,5.956 78.6145,6.229 78.5745,6.715 C78.4105,8.68 78.0885,10.702 77.8455,12.025 C77.4005,14.3 76.8945,16.226 76.8945,16.634 C76.8945,16.866 77.1575,16.965 77.4415,16.965 L81.8755,16.965 C82.3615,16.965 82.6045,16.905 82.6045,16.187 L82.6045,6.713 C82.6045,6.11 82.4835,5.956 81.8565,5.956 L79.3635,5.956 L79.3635,5.956 Z M90.0215,7.552 C90.0215,5.937 89.6775,5.84 88.2595,5.781 C88.1385,5.665 88.1385,5.256 88.2595,5.14 C89.2715,5.16 89.8595,5.178 90.8705,5.178 C91.9035,5.178 92.5115,5.158 93.5035,5.14 C93.6245,5.255 93.6245,5.664 93.5035,5.781 C92.0865,5.841 91.7415,5.936 91.7415,7.552 L91.7415,10.47 L93.5225,10.47 C97.9575,10.47 98.4835,12.435 98.4835,14.166 C98.4835,16.755 96.7315,17.764 92.8545,17.764 C92.1255,17.764 91.4775,17.726 90.8895,17.726 C89.8585,17.726 89.2495,17.747 88.2585,17.764 C88.1355,17.649 88.1355,17.239 88.2585,17.123 C89.6745,17.064 90.0205,16.967 90.0205,15.352 L90.0205,7.552 L90.0215,7.552 Z M96.6015,14.165 C96.6015,12.998 95.8535,11.247 93.2615,11.247 L91.7415,11.247 L91.7415,15.818 C91.7415,16.46 91.9255,17.122 92.8955,17.122 C95.9765,17.122 96.6015,15.371 96.6015,14.165 Z M104.0345,17.122 C104.1555,17.236 104.1555,17.647 104.0345,17.763 C103.0205,17.744 102.4345,17.725 101.4225,17.725 C100.3905,17.725 99.7815,17.745 98.7895,17.763 C98.6685,17.648 98.6685,17.237 98.7895,17.122 C100.2075,17.062 100.5525,16.966 100.5525,15.351 L100.5525,7.551 C100.5525,5.935 100.2075,5.838 98.7895,5.78 C98.6685,5.663 98.6685,5.254 98.7895,5.137 C99.8025,5.158 100.3905,5.177 101.4015,5.177 C102.4345,5.177 103.0425,5.156 104.0345,5.137 C104.1555,5.253 104.1555,5.662 104.0345,5.78 C102.6165,5.839 102.2725,5.934 102.2725,7.551 L102.2725,15.351 C102.2735,16.966 102.6165,17.065 104.0345,17.122 Z M106.4725,17.203 C106.4725,17.066 106.5525,16.985 106.6605,16.985 L106.9025,16.957 C107.7665,16.849 109.1045,15.357 110.4935,11.696 C111.1685,9.916 111.9775,9.23 112.7065,8.793 L112.7065,8.711 C110.8715,8.438 108.6855,7.067 108.6855,4.273 C108.6855,2.383 109.6035,0.027 114.6235,0.027 C115.5675,0.027 117.1605,0.054 118.0525,0.054 C118.8885,0.054 121.5075,0.027 121.5075,0.027 L121.5075,0.602 C121.5075,0.711 121.4525,0.792 121.3185,0.792 L120.5075,0.848 C119.3735,0.93 119.0765,1.123 119.0765,2.053 L119.0765,15.723 C119.0765,16.545 119.4295,16.847 120.5345,16.929 L121.2635,16.986 C121.3715,16.986 121.4805,17.067 121.4805,17.204 L121.4805,17.725 L121.4255,17.781 C121.4255,17.781 119.0765,17.725 118.0255,17.725 C117.0525,17.725 114.5445,17.781 114.5445,17.781 L114.4895,17.725 L114.4895,17.204 C114.4895,17.067 114.5705,16.986 114.7065,16.986 L115.4075,16.929 C116.5415,16.842 116.8905,16.491 116.8905,15.723 L116.8905,8.847 C114.0315,8.847 113.4915,9.642 112.3575,12.547 C111.1965,15.52 110.1985,17.722 108.2815,17.752 L106.5005,17.778 L106.4735,17.723 L106.4735,17.203 L106.4725,17.203 Z M114.7845,7.807 L116.8895,7.807 L116.8895,1.974 C116.8895,1.068 116.7825,0.987 114.4325,0.987 C112.9205,0.987 110.8695,1.425 110.8695,3.972 C110.8715,6.875 112.5445,7.807 114.7845,7.807 Z" id="be-wordmark" fill="#000000" fill-rule="nonzero"></path>
    </g>
</svg>

<svg xmlns="http://www.w3.org/2000/svg" width="122" height="21"><path fill="#000" fill-rule="nonzero" d="M6.976 0c5.02 0 5.804 2.383 5.804 4.217 0 1.489-1.212 2.895-2.563 3.59v.055c2.348.686 4.156 2.191 4.156 4.822 0 2.354-1.43 5.097-6.801 5.097-2.402 0-2.78-.056-3.942-.056-1.375 0-2.185.027-3.508.056-.163-.165-.163-.741 0-.905 1.89-.082 2.348-.219 2.348-2.493V3.397C2.47 1.124 2.011.987.121.905-.04.741-.04.165.122.001c1.351.026 2.132.055 3.482.055C4.763.055 6.033 0 6.976 0ZM4.763 7.698H6.76c2.24 0 3.833-.823 3.833-3.15 0-2.795-1.971-3.616-3.481-3.616-2.35 0-2.35.274-2.35 1.179v5.587Zm0 7.34c0 .905.351 1.837 2.24 1.837 4.104 0 4.858-1.67 4.858-3.671 0-2.465-1.539-4.575-5.236-4.575H4.763v6.409Zm17.159 2.084c.122.114.122.525 0 .641-1.012-.019-1.6-.038-2.613-.038-1.033 0-1.64.02-2.63.038-.123-.115-.123-.526 0-.641 1.416-.06 1.762-.156 1.762-1.771v-7.8c0-1.616-.345-1.713-1.762-1.771-.123-.117-.123-.526 0-.643 1.012.021 1.6.04 2.61.04 1.032 0 1.641-.021 2.633-.04.122.116.122.525 0 .643-1.418.059-1.762.154-1.762 1.771v7.8c0 1.615.345 1.714 1.762 1.771Zm2.247.233c0-.097.063-.155.142-.155l.547-.038c.852-.062 1.095-.273 1.095-.816V6.561c0-.584-.305-.759-1.095-.818l-.524-.037c-.081 0-.162-.06-.162-.156v-.369l.04-.038c1.012.02 1.62.038 2.634.038 1.012 0 1.6-.02 2.591-.038l.041.038v.369c0 .099-.062.156-.162.156l-.525.037c-.81.062-1.114.273-1.114.818v4.045c.729 0 1.64-.02 2.127-.291 1.194-.622 1.479-1.868 1.66-2.956.202-1.205.77-2.296 2.369-2.296 1.073 0 1.438.564 1.438 1.011 0 .565-.465.779-.892.779-.262 0-.545-.097-.748-.292-.224-.215-.386-.313-.648-.313-.606 0-.747.644-.851 1.206-.223 1.206-.648 2.878-2.188 3.424v.098c1.396 0 2.188.836 2.734 2.198 1.055 2.625 2.084 3.949 2.793 4.006l.324.021c.102 0 .161.059.161.154v.37l-.02.038-1.6-.02c-1.58-.02-2.31-1.596-3.18-3.734-.791-1.945-1.174-2.587-3.482-2.587v4.922c0 .582.305.755 1.114.816l.526.038c.08 0 .162.06.162.155v.37l-.041.038c-.973-.038-1.56-.038-2.572-.038s-1.66 0-2.652.038l-.041-.038v-.368Zm19.299-.233c.121.114.121.525 0 .641-1.013-.019-1.6-.038-2.612-.038-1.032 0-1.64.02-2.633.038-.12-.115-.12-.526 0-.641 1.419-.06 1.763-.156 1.763-1.771v-7.8c0-1.616-.344-1.713-1.762-1.771-.121-.117-.121-.526 0-.643 1.013.021 1.6.04 2.612.04 1.032 0 1.64-.021 2.632-.04.121.116.121.525 0 .643-1.417.059-1.763.154-1.763 1.771v7.8c0 1.615.345 1.714 1.763 1.771ZM59.118 5.141c.123.115.123.524 0 .641-1.416.06-1.761.155-1.761 1.771v7.801c0 1.614.344 1.712 1.762 1.771.122.115.122.525 0 .641-.992-.02-1.6-.038-2.633-.038-1.013 0-1.6.021-2.611.038-.122-.115-.122-.525 0-.641 1.416-.059 1.762-.156 1.762-1.771V7.398c0-1.205-.445-1.438-.932-1.438h-3.989c-.486 0-.931.231-.931 1.438v7.956c0 1.614.343 1.712 1.761 1.771.122.115.122.525 0 .641-1.012-.02-1.6-.038-2.61-.038-1.033 0-1.642.021-2.633.038-.122-.115-.122-.525 0-.641 1.417-.059 1.761-.156 1.761-1.771V7.553c0-1.614-.343-1.712-1.761-1.771-.122-.116-.122-.525 0-.641 1.014.02 2.145.038 2.611.038h7.593c.547 0 1.6-.02 2.611-.038Zm10.136 4.238c.121-.116.547-.116.669 0-.022.585-.042 1.011-.042 1.673 0 .661.021 1.031.041 1.713-.12.115-.547.115-.668 0-.061-.876-.12-1.324-1.843-1.324h-1.843v4.688c0 .525.284.836.73.836h2.753c1.54 0 2.248-1.147 2.652-2.548a.948.948 0 0 1 .71.097 30.518 30.518 0 0 1-.749 3.248s-1.62-.038-2.593-.038H64.72s-1.641.021-2.633.038c-.121-.115-.121-.525 0-.642 1.418-.058 1.761-.155 1.761-1.77V7.549c0-1.615-.343-1.712-1.761-1.771-.121-.116-.121-.525 0-.641 1.014.02 2.612.038 2.612.038h5.163c.486 0 .647-.02.992-.077.063 0 .08.02.08.059.041.155.345 2.022.444 2.819a1.177 1.177 0 0 1-.667.099c-.444-1.343-.77-2.12-2.287-2.12h-2.127c-.486 0-.73.388-.73.854V10.7h1.843c1.723.002 1.785-.251 1.846-1.321Zm7.76 2.49c.445-2.218.689-4.221.689-5.445 0-.409-.184-.611-.71-.661l-.606-.059c-.102 0-.163-.04-.163-.117v-.408l.041-.038s1.418.038 2.024.038h5.285c.606 0 2.207-.038 2.207-.038l.041.038v.369c0 .116-.08.15-.161.156l-.589.037c-.65.044-.748.292-.748.993v9.473c0 .72.456.934.81.992.44.073.596.138.608.37l.142 2.879c-.547 0-.547.02-.547.02-.243-1.089-.972-2.742-2.592-2.742h-5.872c-1.682 0-2.207 1.731-2.43 2.742l-.547-.02.141-2.879c.014-.232.227-.341.427-.37.395-.059.72-.106 1.013-.389.526-.507.889-1.907 1.538-4.941Zm2.349-5.913c-.547 0-.75.273-.79.759-.163 1.965-.486 3.987-.728 5.31-.446 2.275-.952 4.201-.952 4.609 0 .232.263.331.547.331h4.434c.487 0 .73-.06.73-.778V6.713c0-.603-.121-.757-.749-.757h-2.492ZM90.02 7.552c0-1.615-.344-1.712-1.761-1.771-.122-.116-.122-.525 0-.641 1.011.02 1.6.038 2.61.038 1.033 0 1.641-.02 2.633-.038.121.115.121.524 0 .641-1.416.06-1.761.155-1.761 1.771v2.918h1.78c4.435 0 4.962 1.965 4.962 3.696 0 2.589-1.752 3.598-5.63 3.598-.728 0-1.376-.038-1.965-.038-1.03 0-1.64.021-2.63.038-.124-.115-.124-.525 0-.641 1.415-.059 1.761-.156 1.761-1.771v-7.8h.002Zm6.58 6.613c0-1.167-.748-2.918-3.34-2.918h-1.52v4.571c0 .642.184 1.304 1.154 1.304 3.082 0 3.707-1.751 3.707-2.957Zm7.433 2.957c.121.114.121.525 0 .641-1.014-.019-1.6-.038-2.612-.038-1.031 0-1.64.02-2.632.038-.122-.115-.122-.526 0-.641 1.417-.06 1.762-.156 1.762-1.771v-7.8c0-1.616-.345-1.713-1.763-1.771-.12-.117-.12-.526 0-.643 1.013.021 1.602.04 2.612.04 1.034 0 1.642-.021 2.633-.04.121.116.121.525 0 .643-1.418.059-1.762.154-1.762 1.771v7.8c.001 1.615.344 1.714 1.762 1.771Zm2.438.081c0-.137.08-.218.189-.218l.242-.028c.863-.108 2.201-1.6 3.59-5.261.675-1.78 1.485-2.466 2.214-2.903v-.082c-1.835-.273-4.021-1.644-4.021-4.438 0-1.89.917-4.246 5.938-4.246.944 0 2.537.027 3.428.027.836 0 3.455-.027 3.455-.027v.575c0 .109-.055.19-.189.19l-.81.056c-1.134.082-1.431.275-1.431 1.205v13.67c0 .822.353 1.124 1.457 1.206l.73.057c.108 0 .217.081.217.218v.521l-.055.056s-2.35-.056-3.4-.056c-.974 0-3.481.056-3.481.056l-.055-.056v-.521c0-.137.08-.218.217-.218l.7-.057c1.135-.087 1.484-.438 1.484-1.206V8.847c-2.86 0-3.4.795-4.534 3.7-1.16 2.973-2.159 5.175-4.076 5.205l-1.78.026-.028-.055v-.52Zm8.313-9.396h2.105V1.974c0-.906-.108-.987-2.457-.987-1.513 0-3.564.438-3.564 2.985.002 2.903 1.675 3.835 3.915 3.835Z"/></svg>
